X: 6
T: Les Bouffons
C: Jean d'Estrées, Tiers Livre de Danseries, 1559
K: G major
M: 4/4
L: 1/8
P: A
 |: "G"G3A B2G2 | "F"c6c2 | "G"B3B "F"A2"G"G2 | "D"F4 F4 | "G"G3A B2G2 | "F"c6"G"B2 | \
"F"A2"Em"G4"D"F2 | "G"G4 G4 :: 
P: B
"G"d4 d2"C"e2 | "F"c4 c2"C"c2 | "G"B2B2 "F"A2"G"G2 | "D"F4 F4 | \
"G"d4 d2"C"e2 | "F"c4 c2"Dm"d2 | "G"B2"C"G4"D"F2 | "G"G4 G4 :| 
